packages/icons/svg/Outline/rewind-left.svg

<svg width="24" height="24" viewBox="0 0 24 24" fill="none" xmlns="http://www.w3.org/2000/svg">
<g id="Icon/Outline/rewind-left">
<path id="Mask" fill-rule="evenodd" clip-rule="evenodd" d="M17.5 15.9854L12.678 12.0024L17.5 8.09139V15.9854ZM9.5 15.9854L4.678 12.0024L9.5 8.09139V15.9854ZM18.45 6.20139C17.716 5.85639 16.849 5.95839 16.241 6.46139L11.5 10.3774V7.78739C11.5 7.11439 11.098 6.50639 10.45 6.20139C9.716 5.85639 8.849 5.95839 8.241 6.46139L3.141 10.6734C2.734 11.0094 2.5 11.4944 2.5 12.0004C2.5 12.5064 2.734 12.9904 3.142 13.3264L8.241 17.5404C8.609 17.8434 9.073 18.0014 9.544 18.0014C9.851 18.0014 10.161 17.9344 10.45 17.7984C11.098 17.4934 11.5 16.8854 11.5 16.2134V13.6224L16.241 17.5404C16.609 17.8434 17.073 18.0014 17.544 18.0014C17.851 18.0014 18.161 17.9344 18.45 17.7984C19.098 17.4934 19.5 16.8854 19.5 16.2134V7.78739C19.5 7.11439 19.098 6.50639 18.45 6.20139Z" fill="#000000"/>
</g>
</svg>

<svg fill="none" height="24" viewBox="0 0 24 24" width="24" xmlns="http://www.w3.org/2000/svg"><path clip-rule="evenodd" d="m17.5 15.9853-4.822-3.983 4.822-3.91101zm-8.00001 0-4.822-3.983 4.822-3.91101zm8.95001-9.78384c-.734-.345-1.601-.243-2.209.26l-4.741 3.91604v-2.59004c0-.673-.402-1.281-1.05-1.586-.734-.345-1.601-.243-2.209.26l-5.1 4.21204c-.407.336-.641.821-.641 1.327s.234.99.642 1.326l5.099 4.214c.368.303.832.461 1.303.461.307 0 .617-.067.906-.203.648-.305 1.05-.913 1.05-1.585v-2.591l4.741 3.918c.368.303.832.461 1.303.461.307 0 .617-.067.906-.203.648-.305 1.05-.913 1.05-1.585v-8.42604c0-.673-.402-1.281-1.05-1.586z" fill="#6b7280" fill-rule="evenodd"/></svg>
